modules/stroke-7/icons/shopbag.svg

<?xml version="1.0" encoding="utf-8"?>
<!-- Generated by IcoMoon.io -->
<!DOCTYPE svg PUBLIC "-//W3C//DTD SVG 1.1//EN" "http://www.w3.org/Graphics/SVG/1.1/DTD/svg11.dtd">
<svg version="1.1" xmlns="http://www.w3.org/2000/svg" xmlns:xlink="http://www.w3.org/1999/xlink" width="32" height="32" viewBox="0 0 32 32">
<g id="icomoon-ignore">
</g>
<path d="M3.205 3.205v25.59h25.59v-25.59h-25.59zM27.729 27.729h-23.457v-23.457h23.457v23.457z" fill="#000000"></path>
<path d="M9.068 13.334c0 3.828 3.104 6.931 6.931 6.931s6.93-3.102 6.93-6.931v-3.732h1.067v-1.066h-3.199v1.066h1.065v3.732c0 3.234-2.631 5.864-5.864 5.864-3.234 0-5.865-2.631-5.865-5.864v-3.732h1.067v-1.066h-3.199v1.066h1.065v3.732z" fill="#000000"></path>
</svg>

<svg xmlns="http://www.w3.org/2000/svg" width="32" height="32"><path d="M3.205 3.205v25.59h25.59V3.205H3.205zm24.524 24.524H4.272V4.272h23.457v23.457z"/><path d="M9.068 13.334a6.931 6.931 0 0 0 13.861 0V9.602h1.067V8.536h-3.199v1.066h1.065v3.732a5.87 5.87 0 0 1-5.864 5.864 5.871 5.871 0 0 1-5.865-5.864V9.602H11.2V8.536H8.001v1.066h1.065v3.732z"/></svg>
